!!!COM: leona-lewis
!!!OTL: i-see-you---avatar
!!!RNB: hooktheoryid: WAQodkyrxDl
**kern	**text
*clefG2	*
*k[b-e-a-d-g-]	*
*M4/4	*
=1	=1
8f	Bbm
8e-	.
8f	.
8d-	.
4e-	Ab
8r	.
[8c	.
=2	=2
8c]	Gb
4d-	.
2G-	.
16r	.
16B-	.
=3	=3
8f	Bbm
8e-	.
8f	.
8d-	.
8e-	Ab
8d-	.
8e-	.
16r	.
16c	.
=4	=4
4d-	Gb
2b-	.
8a-	.
8g-	.
=5	=5
8f	Db
8e-	.
8f	.
8a-	.
8e-	Ab
8d-	.
4e-	.
=6	=6
4c	Gb
8d-	.
2G-	.
16r	.
16G-	.
=7	=7
4G-	Ebm
16r	.
8A-	.
16B-	.
4A-	Db/F
16r	.
8c	.
16d-	.
=8	=8
4.B-	Gb
[8cL	.
8c]J	Ab
16d-	.
4c	.
16r	.
*-	*-